images/favicon.svg

<svg xmlns="http://www.w3.org/2000/svg" width="32" height="32" fill="currentColor">
  <style>
    path {
      fill: #000;
    }
    @media (prefers-color-scheme: dark) {
      path {
        fill: #00cc14;
      }
    }
  </style>
  <path d="M16 16h4v4h-4v-4Zm-4 0v-4h4v4h-4Zm0 0v4H8v-4h4Zm12-8h-4v4h4V8Z"/>
  <path fill-rule="evenodd" d="M0 0v32h32V0H0Zm28 28h-8v-4h4v-4h4v8Zm-8-8h4v-4h4V4H4v16h4v4H4v4h12v-4h4v-4Z" clip-rule="evenodd"/>
</svg>

<svg width="32" height="32" viewBox="0 0 32 32" fill="none" xmlns="http://www.w3.org/2000/svg">
    <style>
        @media (prefers-color-scheme: dark) {
            :root {
                fill: white;
            }
        }

        @media (prefers-color-scheme: light) {
            :root {
                fill: black;
            }
        }
    </style>
    <path d="M16 16H20V20H16V16Z" fill="black" />
    <path d="M12 16V12H16V16H12Z" fill="black" />
    <path d="M12 16V20H8V16H12Z" fill="black" />
    <path d="M24 8H20V12H24V8Z" fill="black" />
    <path fill-rule="evenodd" clip-rule="evenodd"
        d="M0 0V32H32V0H0ZM28 28H20V24H24V20H28V28ZM20 20H24V16H28V4H4V20H8V24H4V28H16V24H20V20Z" fill="black" />
</svg>
